src/categories-icons-sprite/categories/svg-cat-child-art.svg

<svg width="30" height="30" viewBox="0 0 30 30" fill="none" xmlns="http://www.w3.org/2000/svg">
<path class="p-FF3C7D" d="M23.4597 22.5L11.0244 21.3271L12.1972 29.9999H24.3941L23.4597 22.5Z" fill="#A1D1FD"/>
<path class="p-FFA2C1" d="M0.93433 22.5L0 29.9999H12.1969V21.3271L0.93433 22.5Z" fill="#B9DFFC"/>
<path class="p-EFE2DD" d="M28.3838 2.49146H26.626V19.2565H28.3838V2.49146Z" fill="#AFD9F6"/>
<path class="p-09607D" d="M6.41657 25.3711H4.54785V27.1289H6.41657V25.3711Z" fill="#58ADE5"/>
<path class="p-04303E" d="M19.8453 25.3711H17.9766V27.1289H19.8453V25.3711Z" fill="#4D98CB"/>
<path class="p-04303E" d="M27.5048 0L26.332 2.49162L27.5048 4.98325C28.8809 4.98325 29.9965 3.86769 29.9965 2.49162C29.9965 1.1155 28.8809 0 27.5048 0Z" fill="#4D98CB"/>
<path class="p-09607D" d="M25.0137 2.49162C25.0137 3.86769 26.1292 4.98325 27.5053 4.98325V0C26.1292 0 25.0137 1.1155 25.0137 2.49162Z" fill="#58ADE5"/>
<path class="p-00CC76" d="M12.1972 22.4997H23.4597L22.5254 14.9997L11.0244 13.8269L12.1972 22.4997Z" fill="#76B7E2"/>
<path class="p-CCFC5C" d="M12.1961 13.8269L1.86798 14.9997L0.933594 22.4997H12.1961V13.8269Z" fill="#5FBEFF"/>
<path class="p-09607D" d="M7.35114 17.8711H5.48242V19.6289H7.35114V17.8711Z" fill="#58ADE5"/>
<path class="p-04303E" d="M18.9117 17.8711H17.043V19.6289H18.9117V17.8711Z" fill="#4D98CB"/>
<path class="p-2682FF" d="M12.1972 14.9999H22.5254L21.591 7.49995L11.0244 6.32715L12.1972 14.9999Z" fill="#4D98CB"/>
<path class="p-8CBCFF" d="M12.1973 6.32715L2.80347 7.49995L1.86914 14.9999H12.1973V6.32715Z" fill="#58ADE5"/>
<path class="p-09607D" d="M8.28571 10.3711H6.41699V12.1289H8.28571V10.3711Z" fill="#5FBEFF"/>
<path class="p-04303E" d="M17.9771 10.3711H16.1084V12.1289H17.9771V10.3711Z" fill="#58ADE5"/>
<path class="p-EFE2DD" d="M21.591 7.49995L20.6567 0H12.1972L11.0244 3.74998L12.1972 7.49995H21.591Z" fill="#65B3E7"/>
<path class="p-FFF5F5" d="M12.1965 0H3.73712L2.80273 7.49995H12.1965V0Z" fill="#AFD9F6"/>
<path class="p-09607D" d="M9.2193 2.87109H7.35059V4.6289H9.2193V2.87109Z" fill="#58ADE5"/>
<path class="p-04303E" d="M17.0416 2.87109H15.1729V4.6289H17.0416V2.87109Z" fill="#4D98CB"/>
</svg>

<svg width="30" height="30" fill="none" xmlns="http://www.w3.org/2000/svg"><path class="p-FF3C7D" d="M23.46 22.5l-12.436-1.173L12.197 30h12.197l-.934-7.5z" fill="#A1D1FD"/><path class="p-FFA2C1" d="M.934 22.5L0 30h12.197v-8.673L.934 22.5z" fill="#B9DFFC"/><path class="p-EFE2DD" d="M28.384 2.491h-1.758v16.765h1.758V2.491z" fill="#AFD9F6"/><path class="p-09607D" d="M6.417 25.371h-1.87v1.758h1.87V25.37z" fill="#58ADE5"/><path class="p-04303E" d="M19.845 25.371h-1.868v1.758h1.868V25.37zM27.505 0l-1.173 2.492 1.173 2.491a2.492 2.492 0 100-4.983z" fill="#4D98CB"/><path class="p-09607D" d="M25.014 2.492a2.492 2.492 0 002.491 2.491V0a2.492 2.492 0 00-2.491 2.492z" fill="#58ADE5"/><path class="p-00CC76" d="M12.197 22.5H23.46l-.935-7.5-11.5-1.173 1.172 8.673z" fill="#76B7E2"/><path class="p-CCFC5C" d="M12.196 13.827L1.868 15l-.934 7.5h11.262v-8.673z" fill="#5FBEFF"/><path class="p-09607D" d="M7.351 17.871H5.482v1.758h1.87V17.87z" fill="#58ADE5"/><path class="p-04303E" d="M18.912 17.871h-1.869v1.758h1.869V17.87z" fill="#4D98CB"/><path class="p-2682FF" d="M12.197 15h10.328l-.934-7.5-10.567-1.173L12.197 15z" fill="#4D98CB"/><path class="p-8CBCFF" d="M12.197 6.327L2.803 7.5 1.87 15h10.328V6.327z" fill="#58ADE5"/><path class="p-09607D" d="M8.286 10.371H6.417v1.758h1.869V10.37z" fill="#5FBEFF"/><path class="p-04303E" d="M17.977 10.371h-1.869v1.758h1.87V10.37z" fill="#58ADE5"/><path class="p-EFE2DD" d="M21.591 7.5L20.657 0h-8.46l-1.173 3.75 1.173 3.75h9.394z" fill="#65B3E7"/><path class="p-FFF5F5" d="M12.197 0h-8.46l-.934 7.5h9.393V0z" fill="#AFD9F6"/><path class="p-09607D" d="M9.22 2.871H7.35V4.63h1.87V2.87z" fill="#58ADE5"/><path class="p-04303E" d="M17.042 2.871h-1.87V4.63h1.87V2.87z" fill="#4D98CB"/></svg>
